X: 10214
T: Discovery, The
R: jig
M: 6/8
K: Dmajor
A2f fef|aef dBA|BFA BdB|
AFD E2F|D2F FEF|G2B BAB|
[1 ABd ede|fdB AFG:|2 ABd efe|d4 zc||
|:B2f fef|edB AFE|DEF AdA|
BFA E2F|~G2B BAG|FdA FGA|
[1 BdB AFD|~E3 edA:|2 Bcd ecA|d3 zFG||

